!!!!SEGMENT:10Tsunayakata_c.krn
!!!OTL: 綱舘
!!!OPR:Eiga Banso Kyokusyu,jidai-geki,kouhen
!!!YOY:1928
!!!ONB:Kengeki
**kern
*clefG2
*C:
*M2/4
=1
8bbL
16bbL
16bbJJ
8bb
8r
=2
8bL
16bL
16bJJ
8b
8r
=3
8ff#L
16ff#L
16ff#JJ
8ff#
8r
=4
8f#L
16f#L
16f#JJ
8f#
8r
=5
8bbL
16bbL
16bbJJ
8bb
8r
=6
8ff#L
16ff#L
16ff#JJ
8ff#
8r
=7
8aaL
16aaL
16aaJJ
8aaL
16aaL
16aaJJ
=8
8aaL
16aaL
16aaJJ
8aaL
8bbJ
=9
4cc
4b
=10
8aL
16bL
16aJJ
8f#L
8f#J
=11
4g
4f#
=12
8ee
16ff#L
16eeJJ
8cc
8cc
=13
8ccL
8eeJ
16ff#LL
16eeJ
8ccJ
=14
8eeL
16ff#L
16eeJJ
8cc
8r
=15
8ccL
8eeJ
16ff#LL
16ee
16ff#
16eeJJ
=16
8ccL
8bJ
4r
=17
8bL
16bL
16bJJ
8bL
16bL
16bJJ
=18
8bL
8f#J
4r
=19
8f#L
8f#J
8cL
16cL
16cJJ
=20
8BL
8BJ
4r
=21
8bL
16bL
16bJJ
8bL
16bL
16bJJ
=22
8bL
8f#J
4r
=23
8ccL
8eeJ
16ff#LL
16ff#
16ff#
16eeJJ
=24
8bL
8f#J
8r
8r
=25!|:
8raa
8gg
4gg
=26
8raa
8ff#
4ff#
=27
8raa
8ee
4ee
=28
8raa
8cc
4cc
=29:|!
4gg
4ff#
=30
4ee
4ff#
=31
4gg
4ff#
=32
4ee
4ff#
=33
4ccc
4bb
=34
4gg
4ff#
=35
4ee
4ff#
=36
4gg
4ff#
=37
4ccc
4bb
=38
4gg
4ff#
=39
4ee
4ff#
=40
4gg
8ff#L
8ff#J
=41
8r
8eeL
8ff#
8ccJ
=42
8eeL
16ff#L
16eeJJ
8ccL
8ccJ
=43
8r
8ee
8ff#L
8ccJ
=44
8eeL
16ff#L
16eeJJ
8cc
8r
=45
8ff#L
8gg
8bb
8ggJ
=46
8ff#L
8eeJ
8ccL
8bJ
=47
4f#
8ff#L
8ff#J
=48
8f#
4.ff#;
==
*-
!!!ENC: Yukiko Yoden
!!!END: 2023/06/11
